images/MAHA.svg

<svg height="250" viewBox="0 0 250 250" width="250" xmlns="http://www.w3.org/2000/svg" xmlns:xlink="http://www.w3.org/1999/xlink"><linearGradient id="a" gradientTransform="scale(.244141 .325521)" gradientUnits="userSpaceOnUse" x1="400.537109" x2="621.595825" y1="495.586487" y2="274.52771"><stop offset="0" stop-color="#ff8506"/><stop offset=".5805" stop-color="#fd3947"/><stop offset="1" stop-color="#fb0078"/></linearGradient><filter id="b" height="100%" width="100%" x="0%" y="0%"><feColorMatrix in="SourceGraphic" type="matrix" values="0 0 0 0 1 0 0 0 0 1 0 0 0 0 1 0 0 0 1 0"/></filter><mask id="c"><g filter="url(#b)"><path d="m0 0h250v250h-250z" fill-opacity=".6"/></g></mask><linearGradient id="d" gradientTransform="scale(.244141 .325521)" gradientUnits="userSpaceOnUse" x1="491.356903" x2="465.533691" y1="473.116089" y2="509.661102"><stop offset="0" stop-color="#78005b"/><stop offset=".3483" stop-color="#7a025a" stop-opacity=".6517"/><stop offset=".51" stop-color="#820955" stop-opacity=".49"/><stop offset=".6332" stop-color="#8e154e" stop-opacity=".3668"/><stop offset=".7369" stop-color="#a12643" stop-opacity=".2631"/><stop offset=".8283" stop-color="#b83c36" stop-opacity=".1717"/><stop offset=".9111" stop-color="#d65725" stop-opacity=".0889"/><stop offset=".9857" stop-color="#f87711" stop-opacity=".0143"/><stop offset="1" stop-color="#ff7e0d" stop-opacity="0"/></linearGradient><clipPath id="e"><path d="m0 0h250v250h-250z"/></clipPath><mask id="f"><g filter="url(#b)"><path d="m0 0h250v250h-250z" fill-opacity=".6"/></g></mask><linearGradient id="g" gradientTransform="matrix(-.244141 0 0 .325521 2414.484262 0)" gradientUnits="userSpaceOnUse" x1="9335.275391" x2="9359.581055" y1="506.94101" y2="471.982788"><stop offset="0" stop-color="#ff7e0d" stop-opacity="0"/><stop offset=".00928743" stop-color="#f97811" stop-opacity=".0127"/><stop offset=".0651" stop-color="#d65825" stop-opacity=".0888"/><stop offset=".1269" stop-color="#b93d36" stop-opacity=".1729"/><stop offset=".1949" stop-color="#a12643" stop-opacity=".2657"/><stop offset=".272" stop-color="#8f154e" stop-opacity=".3707"/><stop offset=".3632" stop-color="#820955" stop-opacity=".495"/><stop offset=".4822" stop-color="#7a025a" stop-opacity=".6573"/><stop offset=".7336" stop-color="#78005b"/></linearGradient><clipPath id="h"><path d="m0 0h250v250h-250z"/></clipPath><mask id="i"><g filter="url(#b)"><path d="m0 0h250v250h-250z" fill-opacity=".6"/></g></mask><linearGradient id="j" gradientTransform="scale(.244141 .325521)" gradientUnits="userSpaceOnUse" x1="492.200592" x2="511.854492" y1="472.929596" y2="444.661713"><stop offset="0" stop-color="#ff7e0d" stop-opacity="0"/><stop offset=".0133" stop-color="#f97910" stop-opacity=".0192"/><stop offset=".1144" stop-color="#d25427" stop-opacity=".1659"/><stop offset=".219" stop-color="#b1363a" stop-opacity=".3175"/><stop offset=".3263" stop-color="#981e48" stop-opacity=".4731"/><stop offset=".4375" stop-color="#860d53" stop-opacity=".6344"/><stop offset=".5551" stop-color="#7b0359" stop-opacity=".8048"/><stop offset=".6897" stop-color="#78005b"/></linearGradient><clipPath id="k"><path d="m0 0h250v250h-250z"/></clipPath><linearGradient id="l"><stop offset="0" stop-color="#ff4630" stop-opacity="0"/><stop offset=".5722" stop-color="#b31f48" stop-opacity=".5722"/><stop offset="1" stop-color="#78005b"/></linearGradient><linearGradient id="m" gradientTransform="scale(.244141 .325521)" gradientUnits="userSpaceOnUse" x1="433.950989" x2="477.684113" xlink:href="#l" y1="331.151001" y2="287.417908"/><linearGradient id="n" gradientTransform="scale(.244141 .325521)" gradientUnits="userSpaceOnUse" x1="480.20459" x2="509.334808" xlink:href="#l" y1="360.242493" y2="331.112305"/><linearGradient id="o" gradientTransform="scale(.244141 .325521)" gradientUnits="userSpaceOnUse" x1="512.803589" x2="542.030029" xlink:href="#l" y1="315.682007" y2="286.455688"/><path d="m-.300781.273438h250.144531v250.144531h-250.144531zm0 0"/><path d="m165.53125 117.164062-18.835938-34.375c-1.402343-2.5625-3.570312-4.03125-5.949218-4.03125s-4.546875 1.46875-5.949219 4.03125l-2.046875 3.742188-2.050781-3.742188c-1.402344-2.5625-3.570313-4.03125-5.949219-4.03125-2.375 0-4.546875 1.46875-5.949219 4.03125l-2.023437 3.695313-2.023438-3.695313c-1.402344-2.5625-3.574218-4.03125-5.949218-4.03125-2.378907 0-4.550782 1.46875-5.949219 4.03125l-18.835938 34.375c-2.683593 4.894532-2.683593 11.464844 0 16.359376l18.835938 34.375c1.402343 2.558593 3.570312 4.027343 5.949219 4.027343 2.375 0 4.546874-1.46875 5.949218-4.027343l10.023438-18.296876 2.066406 3.777344c.007812.011719.015625.027344.023438.039063l7.933593 14.480469c1.40625 2.558593 3.574219 4.027343 5.949219 4.027343 2.378906 0 4.550781-1.46875 5.953125-4.027343l18.835937-34.375c2.671876-4.894532 2.671876-11.464844-.007812-16.359376zm-43.730469-31.449218c.695313-1.265625 1.769531-1.996094 2.945313-1.996094 1.175781 0 2.25.726562 2.945312 1.996094l2.746094 5.019531-5.667969 10.347656-5.695312-10.394531zm-10.058593 79.253906c-.691407 1.269531-1.765626 1.996094-2.945313 1.996094-1.175781 0-2.25-.722656-2.941406-1.992188l-18.835938-34.378906c-1.722656-3.140625-1.722656-7.359375 0-10.5l18.835938-34.375c.691406-1.265625 1.765625-1.996094 2.941406-1.996094 1.179687 0 2.253906.726563 2.945313 1.996094l2.726562 4.976562-14.507812 26.472657c-2.679688 4.890625-2.679688 11.464843.003906 16.367187l1.105468 1.996094v-.003906l9.726563 17.855468c1.238281 2.257813 3.074219 3.667969 5.121094 3.96875zm7.953124-14.511719-.003906-.003906c-.691406 1.265625-1.765625 1.996094-2.941406 1.996094-1.179688 0-2.253906-.726563-2.945312-1.992188l-9.996094-18.355469h-.003906l-.835938-1.507812c-1.722656-3.140625-1.722656-7.363281 0-10.503906l13.804688-25.195313 5.695312 10.394531-6.507812 11.875c-2.679688 4.894532-2.679688 11.464844 0 16.359376l6.507812 11.875zm5.078126-40.957031 5.804687 10.59375c1.722656 3.140625 1.722656 7.359375 0 10.5l-5.804687 10.597656-5.804688-10.597656c-1.722656-3.140625-1.722656-7.359375 0-10.5zm8.8125 24.023438c2.679687-4.894532 2.679687-11.464844 0-16.359376l-6.507813-11.875 5.671875-10.347656 13.78125 25.152344c1.71875 3.140625 1.71875 7.359375-.007812 10.519531l-2.207032 4.089844-8.578125 15.753906c-.695312 1.265625-1.769531 1.992188-2.945312 1.992188-1.164063 0-2.226563-.710938-2.921875-1.953125l-2.792969-5.09375zm28.941406-2.929688-18.835938 34.375c-.691406 1.269531-1.769531 1.996094-2.945312 1.996094-1.175782 0-2.25-.726563-2.941406-1.996094l-4.179688-7.621094c2.046875-.304687 3.878906-1.710937 5.121094-3.972656l7.371094-13.535156.007812.007812 1.207031-2.242187 1.410157-2.589844-.007813-.007813.800781-1.484374c2.679688-4.894532 2.679688-11.464844 0-16.359376l-14.484375-26.429687 2.75-5.015625c.691407-1.265625 1.765625-1.996094 2.945313-1.996094 1.175781 0 2.25.726563 2.941406 1.996094l18.835938 34.375c1.726562 3.136719 1.726562 7.359375.003906 10.5zm0 0" fill="url(#a)"/><g clip-path="url(#e)" mask="url(#c)"><path d="m116.75 157.410156c-.289062 0-.570312-.023437-.847656-.066406l-4.042969 7.429688 3.046875 2.875 7.394531-13.539063c-1.394531 2.105469-3.414062 3.300781-5.550781 3.300781zm0 0" fill="url(#d)"/></g><g clip-path="url(#h)" mask="url(#f)"><path d="m132.773438 157.410156c.285156 0 .566406-.023437.84375-.066406l4.046874 7.429688-3.050781 2.875-7.355469-13.523438c1.394532 2.101562 3.375 3.285156 5.515626 3.285156zm0 0" fill="url(#g)"/></g><g clip-path="url(#k)" mask="url(#i)"><path d="m122.4375 145.363281 2.351562 4.28125-3.574218 6.398438-2.351563-4.160157zm0 0" fill="url(#j)"/></g><path d="m114.46875 90.6875 2.3125 4.242188-8.371094 15.332031-2.929687-3.082031zm0 0" fill="url(#m)"/><path d="m122.472656 105.28125 2.289063 4.242188-5.339844 9.835937-2.925781-3.082031zm0 0" fill="url(#n)"/><path d="m130.445312 90.730469 2.300782 4.21875-5.660156 10.332031-2.3125-4.214844zm0 0" fill="url(#o)"/></svg>

<!-- Generator: Adobe Illustrator 24.3.0, SVG Export Plug-In . SVG Version: 6.00 Build 0)  -->
<svg xmlns="http://www.w3.org/2000/svg" xmlns:xlink="http://www.w3.org/1999/xlink" width="250px" height="250px" viewBox="0 0 250 250" version="1.1">
<defs>
<linearGradient id="linear0" gradientUnits="userSpaceOnUse" x1="400.537109" y1="495.586487" x2="621.595825" y2="274.52771" gradientTransform="matrix(0.244141,0,0,0.325521,0,0)">
<stop offset="0" style="stop-color:rgb(100%,52.156866%,2.352941%);stop-opacity:1;"/>
<stop offset="0.5805" style="stop-color:rgb(99.215686%,22.352941%,27.843139%);stop-opacity:1;"/>
<stop offset="1" style="stop-color:rgb(98.431373%,0%,47.058824%);stop-opacity:1;"/>
</linearGradient>
<filter id="alpha" filterUnits="objectBoundingBox" x="0%" y="0%" width="100%" height="100%">
  <feColorMatrix type="matrix" in="SourceGraphic" values="0 0 0 0 1 0 0 0 0 1 0 0 0 0 1 0 0 0 1 0"/>
</filter>
<mask id="mask0">
  <g filter="url(#alpha)">
<rect x="0" y="0" width="250" height="250" style="fill:rgb(0%,0%,0%);fill-opacity:0.6;stroke:none;"/>
  </g>
</mask>
<linearGradient id="linear1" gradientUnits="userSpaceOnUse" x1="491.356903" y1="473.116089" x2="465.533691" y2="509.661102" gradientTransform="matrix(0.244141,0,0,0.325521,0,0)">
<stop offset="0" style="stop-color:rgb(47.058824%,0%,35.686275%);stop-opacity:1;"/>
<stop offset="0.3483" style="stop-color:rgb(47.843137%,0.784314%,35.294119%);stop-opacity:0.6517;"/>
<stop offset="0.51" style="stop-color:rgb(50.980395%,3.529412%,33.333334%);stop-opacity:0.49;"/>
<stop offset="0.6332" style="stop-color:rgb(55.686277%,8.235294%,30.588236%);stop-opacity:0.3668;"/>
<stop offset="0.7369" style="stop-color:rgb(63.137257%,14.901961%,26.274511%);stop-opacity:0.2631;"/>
<stop offset="0.8283" style="stop-color:rgb(72.156864%,23.529412%,21.176471%);stop-opacity:0.1717;"/>
<stop offset="0.9111" style="stop-color:rgb(83.92157%,34.117648%,14.509805%);stop-opacity:0.0889;"/>
<stop offset="0.9857" style="stop-color:rgb(97.254902%,46.666667%,6.666667%);stop-opacity:0.0143;"/>
<stop offset="1" style="stop-color:rgb(100%,49.411765%,5.098039%);stop-opacity:0;"/>
</linearGradient>
<clipPath id="clip1">
  <rect x="0" y="0" width="250" height="250"/>
</clipPath>
<g id="surface5" clip-path="url(#clip1)">
<path style=" stroke:none;fill-rule:nonzero;fill:url(#linear1);" d="M 116.75 157.410156 C 116.460938 157.410156 116.179688 157.386719 115.902344 157.34375 L 111.859375 164.773438 L 114.90625 167.648438 L 122.300781 154.109375 C 120.90625 156.214844 118.886719 157.410156 116.75 157.410156 Z M 116.75 157.410156 "/>
</g>
<mask id="mask1">
  <g filter="url(#alpha)">
<rect x="0" y="0" width="250" height="250" style="fill:rgb(0%,0%,0%);fill-opacity:0.6;stroke:none;"/>
  </g>
</mask>
<linearGradient id="linear2" gradientUnits="userSpaceOnUse" x1="9335.275391" y1="506.94101" x2="9359.581055" y2="471.982788" gradientTransform="matrix(-0.244141,0,0,0.325521,2414.484262,0)">
<stop offset="0" style="stop-color:rgb(100%,49.411765%,5.098039%);stop-opacity:0;"/>
<stop offset="0.00928743" style="stop-color:rgb(97.647059%,47.058824%,6.666667%);stop-opacity:0.0127;"/>
<stop offset="0.0651" style="stop-color:rgb(83.92157%,34.509805%,14.509805%);stop-opacity:0.0888;"/>
<stop offset="0.1269" style="stop-color:rgb(72.549021%,23.921569%,21.176471%);stop-opacity:0.1729;"/>
<stop offset="0.1949" style="stop-color:rgb(63.137257%,14.901961%,26.274511%);stop-opacity:0.2657;"/>
<stop offset="0.272" style="stop-color:rgb(56.078434%,8.235294%,30.588236%);stop-opacity:0.3707;"/>
<stop offset="0.3632" style="stop-color:rgb(50.980395%,3.529412%,33.333334%);stop-opacity:0.495;"/>
<stop offset="0.4822" style="stop-color:rgb(47.843137%,0.784314%,35.294119%);stop-opacity:0.6573;"/>
<stop offset="0.7336" style="stop-color:rgb(47.058824%,0%,35.686275%);stop-opacity:1;"/>
</linearGradient>
<clipPath id="clip2">
  <rect x="0" y="0" width="250" height="250"/>
</clipPath>
<g id="surface8" clip-path="url(#clip2)">
<path style=" stroke:none;fill-rule:nonzero;fill:url(#linear2);" d="M 132.773438 157.410156 C 133.058594 157.410156 133.339844 157.386719 133.617188 157.34375 L 137.664062 164.773438 L 134.613281 167.648438 L 127.257812 154.125 C 128.652344 156.226562 130.632812 157.410156 132.773438 157.410156 Z M 132.773438 157.410156 "/>
</g>
<mask id="mask2">
  <g filter="url(#alpha)">
<rect x="0" y="0" width="250" height="250" style="fill:rgb(0%,0%,0%);fill-opacity:0.6;stroke:none;"/>
  </g>
</mask>
<linearGradient id="linear3" gradientUnits="userSpaceOnUse" x1="492.200592" y1="472.929596" x2="511.854492" y2="444.661713" gradientTransform="matrix(0.244141,0,0,0.325521,0,0)">
<stop offset="0" style="stop-color:rgb(100%,49.411765%,5.098039%);stop-opacity:0;"/>
<stop offset="0.0133" style="stop-color:rgb(97.647059%,47.450981%,6.27451%);stop-opacity:0.0192;"/>
<stop offset="0.1144" style="stop-color:rgb(82.352942%,32.941177%,15.294118%);stop-opacity:0.1659;"/>
<stop offset="0.219" style="stop-color:rgb(69.411767%,21.176471%,22.745098%);stop-opacity:0.3175;"/>
<stop offset="0.3263" style="stop-color:rgb(59.607846%,11.764706%,28.235295%);stop-opacity:0.4731;"/>
<stop offset="0.4375" style="stop-color:rgb(52.549022%,5.098039%,32.549021%);stop-opacity:0.6344;"/>
<stop offset="0.5551" style="stop-color:rgb(48.235294%,1.176471%,34.901962%);stop-opacity:0.8048;"/>
<stop offset="0.6897" style="stop-color:rgb(47.058824%,0%,35.686275%);stop-opacity:1;"/>
</linearGradient>
<clipPath id="clip3">
  <rect x="0" y="0" width="250" height="250"/>
</clipPath>
<g id="surface11" clip-path="url(#clip3)">
<path style=" stroke:none;fill-rule:nonzero;fill:url(#linear3);" d="M 122.4375 145.363281 L 124.789062 149.644531 L 121.214844 156.042969 L 118.863281 151.882812 Z M 122.4375 145.363281 "/>
</g>
<linearGradient id="linear4" gradientUnits="userSpaceOnUse" x1="433.950989" y1="331.151001" x2="477.684113" y2="287.417908" gradientTransform="matrix(0.244141,0,0,0.325521,0,0)">
<stop offset="0" style="stop-color:rgb(100%,27.450982%,18.82353%);stop-opacity:0;"/>
<stop offset="0.5722" style="stop-color:rgb(70.19608%,12.156863%,28.235295%);stop-opacity:0.5722;"/>
<stop offset="1" style="stop-color:rgb(47.058824%,0%,35.686275%);stop-opacity:1;"/>
</linearGradient>
<linearGradient id="linear5" gradientUnits="userSpaceOnUse" x1="480.20459" y1="360.242493" x2="509.334808" y2="331.112305" gradientTransform="matrix(0.244141,0,0,0.325521,0,0)">
<stop offset="0" style="stop-color:rgb(100%,27.450982%,18.82353%);stop-opacity:0;"/>
<stop offset="0.5722" style="stop-color:rgb(70.19608%,12.156863%,28.235295%);stop-opacity:0.5722;"/>
<stop offset="1" style="stop-color:rgb(47.058824%,0%,35.686275%);stop-opacity:1;"/>
</linearGradient>
<linearGradient id="linear6" gradientUnits="userSpaceOnUse" x1="512.803589" y1="315.682007" x2="542.030029" y2="286.455688" gradientTransform="matrix(0.244141,0,0,0.325521,0,0)">
<stop offset="0" style="stop-color:rgb(100%,27.450982%,18.82353%);stop-opacity:0;"/>
<stop offset="0.5722" style="stop-color:rgb(70.19608%,12.156863%,28.235295%);stop-opacity:0.5722;"/>
<stop offset="1" style="stop-color:rgb(47.058824%,0%,35.686275%);stop-opacity:1;"/>
</linearGradient>
</defs>
<g id="surface1">
<path style=" stroke:none;fill-rule:nonzero;fill:rgb(0%,0%,0%);fill-opacity:1;" d="M -0.300781 0.273438 L 249.84375 0.273438 L 249.84375 250.417969 L -0.300781 250.417969 Z M -0.300781 0.273438 "/>
<path style=" stroke:none;fill-rule:nonzero;fill:url(#linear0);" d="M 165.53125 117.164062 L 146.695312 82.789062 C 145.292969 80.226562 143.125 78.757812 140.746094 78.757812 C 138.367188 78.757812 136.199219 80.226562 134.796875 82.789062 L 132.75 86.53125 L 130.699219 82.789062 C 129.296875 80.226562 127.128906 78.757812 124.75 78.757812 C 122.375 78.757812 120.203125 80.226562 118.800781 82.789062 L 116.777344 86.484375 L 114.753906 82.789062 C 113.351562 80.226562 111.179688 78.757812 108.804688 78.757812 C 106.425781 78.757812 104.253906 80.226562 102.855469 82.789062 L 84.019531 117.164062 C 81.335938 122.058594 81.335938 128.628906 84.019531 133.523438 L 102.855469 167.898438 C 104.257812 170.457031 106.425781 171.925781 108.804688 171.925781 C 111.179688 171.925781 113.351562 170.457031 114.753906 167.898438 L 124.777344 149.601562 L 126.84375 153.378906 C 126.851562 153.390625 126.859375 153.40625 126.867188 153.417969 L 134.800781 167.898438 C 136.207031 170.457031 138.375 171.925781 140.75 171.925781 C 143.128906 171.925781 145.300781 170.457031 146.703125 167.898438 L 165.539062 133.523438 C 168.210938 128.628906 168.210938 122.058594 165.53125 117.164062 Z M 121.800781 85.714844 C 122.496094 84.449219 123.570312 83.71875 124.746094 83.71875 C 125.921875 83.71875 126.996094 84.445312 127.691406 85.714844 L 130.4375 90.734375 L 124.769531 101.082031 L 119.074219 90.6875 Z M 111.742188 164.96875 C 111.050781 166.238281 109.976562 166.964844 108.796875 166.964844 C 107.621094 166.964844 106.546875 166.242188 105.855469 164.972656 L 87.019531 130.59375 C 85.296875 127.453125 85.296875 123.234375 87.019531 120.09375 L 105.855469 85.71875 C 106.546875 84.453125 107.621094 83.722656 108.796875 83.722656 C 109.976562 83.722656 111.050781 84.449219 111.742188 85.71875 L 114.46875 90.695312 L 99.960938 117.167969 C 97.28125 122.058594 97.28125 128.632812 99.964844 133.535156 L 101.070312 135.53125 L 101.070312 135.527344 L 110.796875 153.382812 C 112.035156 155.640625 113.871094 157.050781 115.917969 157.351562 Z M 119.695312 150.457031 L 119.691406 150.453125 C 119 151.71875 117.925781 152.449219 116.75 152.449219 C 115.570312 152.449219 114.496094 151.722656 113.804688 150.457031 L 103.808594 132.101562 L 103.804688 132.101562 L 102.96875 130.59375 C 101.246094 127.453125 101.246094 123.230469 102.96875 120.089844 L 116.773438 94.894531 L 122.46875 105.289062 L 115.960938 117.164062 C 113.28125 122.058594 113.28125 128.628906 115.960938 133.523438 L 122.46875 145.398438 Z M 124.773438 109.5 L 130.578125 120.09375 C 132.300781 123.234375 132.300781 127.453125 130.578125 130.59375 L 124.773438 141.191406 L 118.96875 130.59375 C 117.246094 127.453125 117.246094 123.234375 118.96875 120.09375 Z M 133.585938 133.523438 C 136.265625 128.628906 136.265625 122.058594 133.585938 117.164062 L 127.078125 105.289062 L 132.75 94.941406 L 146.53125 120.09375 C 148.25 123.234375 148.25 127.453125 146.523438 130.613281 L 144.316406 134.703125 L 135.738281 150.457031 C 135.042969 151.722656 133.96875 152.449219 132.792969 152.449219 C 131.628906 152.449219 130.566406 151.738281 129.871094 150.496094 L 127.078125 145.402344 Z M 162.527344 130.59375 L 143.691406 164.96875 C 143 166.238281 141.921875 166.964844 140.746094 166.964844 C 139.570312 166.964844 138.496094 166.238281 137.804688 164.96875 L 133.625 157.347656 C 135.671875 157.042969 137.503906 155.636719 138.746094 153.375 L 146.117188 139.839844 L 146.125 139.847656 L 147.332031 137.605469 L 148.742188 135.015625 L 148.734375 135.007812 L 149.535156 133.523438 C 152.214844 128.628906 152.214844 122.058594 149.535156 117.164062 L 135.050781 90.734375 L 137.800781 85.71875 C 138.492188 84.453125 139.566406 83.722656 140.746094 83.722656 C 141.921875 83.722656 142.996094 84.449219 143.6875 85.71875 L 162.523438 120.09375 C 164.25 123.230469 164.25 127.453125 162.527344 130.59375 Z M 162.527344 130.59375 "/>
<use xlink:href="#surface5" mask="url(#mask0)"/>
<use xlink:href="#surface8" mask="url(#mask1)"/>
<use xlink:href="#surface11" mask="url(#mask2)"/>
<path style=" stroke:none;fill-rule:nonzero;fill:url(#linear4);" d="M 114.46875 90.6875 L 116.78125 94.929688 L 108.410156 110.261719 L 105.480469 107.179688 Z M 114.46875 90.6875 "/>
<path style=" stroke:none;fill-rule:nonzero;fill:url(#linear5);" d="M 122.472656 105.28125 L 124.761719 109.523438 L 119.421875 119.359375 L 116.496094 116.277344 Z M 122.472656 105.28125 "/>
<path style=" stroke:none;fill-rule:nonzero;fill:url(#linear6);" d="M 130.445312 90.730469 L 132.746094 94.949219 L 127.085938 105.28125 L 124.773438 101.066406 Z M 130.445312 90.730469 "/>
</g>
</svg>
